!!!OTL@@FR: A ma main droit' j'ai un rosier
!!!OTL@EN: With Care I Tend My Rosebush
!!!ARE: France
!!!AMD: Pentatonic
**kern
*clefG2
*k[b-]
*M3/4
*MM80
{8a/
8f/L
8a/J
=1
4cc\
4ff\
8cc\L
8dd\J
=2
*M2/4
8cc/L}
{8a/J
8f/L
8a/J
=3
*M3/4
4cc\
4ff\
8cc\L
8dd\J
=4
*M2/4
8cc/L}
{8a/J
8a/L
8g/J
=5
*M3/4
4a/
4cc\
8g/L
8a/J
=6
*M2/4
8f/L}
{8a/J
8a/L
8g/J
=7
*M3/4
4a/
4cc\
8g/L
8a/J
=8
4f/}
8r
==
*-
